X:1
T:Partition sans titre
C:Compositeur / Arrangeur
L:1/8
M:4/4
I:linebreak $
K:D
V:1 treble nm="Violon" snm="Vln."
V:1
"D" a3 f fefg | f2 ef"G" g2 f2 |"A" e2 d2 caaa |"D" a3 f fefg | f2 ef"G" g2 b2 |1 %5
"A" a2 c2"D" daaa :|2"A" a2 c2"D" dBAG |[M:2/4] FA Bc |:[M:4/4]"D" d2 cd"A" eAAA | A2 de"D" fddd | %10
 dBAG FABc | d2 cd"A" edcB |1"D" AGFE DBAG |[M:2/4] FA Bc :|2[M:4/4]"D" AGFE Daaa |] %15
